web/src/statics/icons-vector.svg

<?xml version="1.0" encoding="UTF-8" standalone="no"?>
<!-- Created with Inkscape (http://www.inkscape.org/) -->

<svg
   width="512"
   height="512"
   viewBox="0 0 135.46666 135.46667"
   version="1.1"
   id="svg5"
   inkscape:version="1.1 (c68e22c387, 2021-05-23)"
   sodipodi:docname="logo_dark_android.svg"
   xmlns:inkscape="http://www.inkscape.org/namespaces/inkscape"
   xmlns:sodipodi="http://sodipodi.sourceforge.net/DTD/sodipodi-0.dtd"
   xmlns:xlink="http://www.w3.org/1999/xlink"
   xmlns="http://www.w3.org/2000/svg"
   xmlns:svg="http://www.w3.org/2000/svg">
  <sodipodi:namedview
     id="namedview7"
     pagecolor="#ffffff"
     bordercolor="#666666"
     borderopacity="1.0"
     inkscape:pageshadow="2"
     inkscape:pageopacity="0.0"
     inkscape:pagecheckerboard="0"
     inkscape:document-units="mm"
     showgrid="false"
     units="px"
     inkscape:zoom="1"
     inkscape:cx="332.5"
     inkscape:cy="304.5"
     inkscape:window-width="2400"
     inkscape:window-height="1271"
     inkscape:window-x="2391"
     inkscape:window-y="-9"
     inkscape:window-maximized="1"
     inkscape:current-layer="layer1"
     showguides="false"
     inkscape:guide-bbox="true">
    <sodipodi:guide
       position="96.311944,118.68475"
       orientation="0.70710678,0.70710678"
       id="guide9561"
       inkscape:label=""
       inkscape:locked="false"
       inkscape:color="rgb(0,0,255)" />
    <sodipodi:guide
       position="44.00868,14.492656"
       orientation="0.70710678,0.70710678"
       id="guide10498"
       inkscape:label=""
       inkscape:locked="false"
       inkscape:color="rgb(0,0,255)" />
    <sodipodi:guide
       position="41.812434,62.766194"
       orientation="0.70710678,0.70710678"
       id="guide10620"
       inkscape:label=""
       inkscape:locked="false"
       inkscape:color="rgb(0,0,255)" />
    <sodipodi:guide
       position="60.291924,0"
       orientation="0,1"
       id="guide13455"
       inkscape:label=""
       inkscape:locked="false"
       inkscape:color="rgb(0,0,255)" />
    <sodipodi:guide
       position="135.46666,24.540105"
       orientation="-1,0"
       id="guide13924"
       inkscape:label=""
       inkscape:locked="false"
       inkscape:color="rgb(0,0,255)" />
  </sodipodi:namedview>
  <defs
     id="defs2">
    <linearGradient
       inkscape:collect="always"
       id="linearGradient5883">
      <stop
         style="stop-color:#1f1f1f;stop-opacity:1;"
         offset="0"
         id="stop5879" />
      <stop
         style="stop-color:#1f1f1f;stop-opacity:0.255"
         offset="1"
         id="stop5881" />
    </linearGradient>
    <linearGradient
       inkscape:collect="always"
       xlink:href="#linearGradient5883"
       id="linearGradient5885"
       x1="115.25519"
       y1="116.6689"
       x2="-634.30945"
       y2="-639.70209"
       gradientUnits="userSpaceOnUse"
       gradientTransform="translate(1.4880371e-5)" />
    <linearGradient
       inkscape:collect="always"
       xlink:href="#linearGradient5883"
       id="linearGradient14200"
       gradientUnits="userSpaceOnUse"
       gradientTransform="matrix(3.7795276,0,0,3.7795276,5.8055796e-5,0)"
       x1="115.25519"
       y1="116.6689"
       x2="-634.30945"
       y2="-639.70209" />
  </defs>
  <g
     inkscape:label="Layer 1"
     inkscape:groupmode="layer"
     id="layer1">
    <circle
       style="fill:url(#linearGradient5885);fill-opacity:1;fill-rule:nonzero;stroke:none;stroke-width:0.347899;stroke-dasharray:0.347899, 0.6958"
       id="path3741"
       cx="67.73333"
       cy="67.73333"
       r="67.73333" />
    <path
       id="path3741-0"
       style="fill:url(#linearGradient14200);fill-opacity:1;fill-rule:nonzero;stroke:none;stroke-width:1.31489;stroke-dasharray:1.31489, 2.6298"
       d="M 364.01367 63.427734 L 306.88477 98.994141 L 243.95117 193.04102 L 259.50781 289.20703 L 166.33203 457.22461 L 218.29883 509.19141 A 255.99999 255.99999 0 0 0 256 512 A 255.99999 255.99999 0 0 0 512 256 A 255.99999 255.99999 0 0 0 507.16211 206.57617 L 364.01367 63.427734 z "
       transform="scale(0.26458333)" />
    <path
       style="fill:#ffffff;fill-opacity:1;stroke-width:0.203642"
       d="m 44.394706,119.60005 c 3.409027,-12.14662 12.819589,-46.222173 12.819589,-46.419624 0,-0.213433 -1.520199,-0.265286 -7.762155,-0.265286 -7.293713,0 -7.756324,-0.02079 -7.665219,-0.356311 0.05349,-0.195941 3.566253,-12.842187 7.80648,-28.102637 l 7.709486,-27.746216 h 19.505367 c 10.727918,0 19.505315,0.03331 19.505315,0.07221 0,0.04176 -5.601825,10.682355 -12.448455,23.650016 -6.846633,12.967669 -12.492902,23.747677 -12.547284,23.955611 -0.09528,0.364647 0.30744,0.379666 11.230336,0.430661 l 11.329259,0.05262 -22.557176,28.039189 -22.557129,28.039147 -2.377078,0.0122 -2.377127,0.0122 0.38593,-1.37459 z"
       id="path1564" />
    <path
       style="fill:#000000;fill-opacity:0.627451;stroke:none;stroke-width:0.264583px;stroke-linecap:butt;stroke-linejoin:miter;stroke-opacity:1;opacity:0.25"
       d="m 41.812434,72.700472 0.928108,-0.171567 15.468764,-1.266172 10.732868,11.149826 -8.007244,9.410408 z"
       id="path10890"
       sodipodi:nodetypes="cccccc" />
    <path
       style="fill:#ffffff;fill-opacity:1;stroke-width:0.203642"
       d="m 44.394706,119.60005 c 3.409027,-12.14661 12.819589,-46.222173 12.819589,-46.419624 0,-0.213433 -1.520199,-0.265286 -7.762155,-0.265286 -7.293713,0 -7.756324,-0.02079 -7.665219,-0.356311 0.05349,-0.195941 3.566253,-12.842187 7.80648,-28.102637 l 7.709486,-27.746216 h 19.505367 c 10.727918,0 19.505315,0.03331 19.505315,0.07221 0,0.04176 -5.601825,10.682355 -12.448455,23.650016 -6.846633,12.967669 -12.492902,23.747677 -12.547284,23.955611 -0.09528,0.364647 0.30744,0.379666 11.230336,0.430661 l 11.329259,0.05262 -22.557176,28.039189 -22.557129,28.039157 -2.377078,0.0122 -2.377127,0.0122 0.38593,-1.37459 z"
       id="path1564-6" />
  </g>
  <g
     inkscape:groupmode="layer"
     id="layer2"
     inkscape:label="shadow" />
</svg>

<svg width="512" height="512" viewBox="0 0 135.467 135.467" xmlns:xlink="http://www.w3.org/1999/xlink" xmlns="http://www.w3.org/2000/svg"><defs><linearGradient id="a"><stop style="stop-color:#1f1f1f;stop-opacity:1" offset="0"/><stop style="stop-color:#1f1f1f;stop-opacity:.255" offset="1"/></linearGradient><linearGradient xlink:href="#a" id="b" x1="115.255" y1="116.669" x2="-634.309" y2="-639.702" gradientUnits="userSpaceOnUse"/><linearGradient xlink:href="#a" id="c" gradientUnits="userSpaceOnUse" gradientTransform="matrix(3.77953 0 0 3.77953 0 0)" x1="115.255" y1="116.669" x2="-634.309" y2="-639.702"/></defs><circle style="fill:url(#b);fill-opacity:1;fill-rule:nonzero;stroke:none;stroke-width:.347899;stroke-dasharray:.347899,.6958" cx="67.733" cy="67.733" r="67.733"/><path style="fill:url(#c);fill-opacity:1;fill-rule:nonzero;stroke:none;stroke-width:1.31489;stroke-dasharray:1.31489,2.6298" d="m364.014 63.428-57.13 35.566-62.933 94.047 15.557 96.166-93.176 168.018 51.967 51.966A256 256 0 0 0 256 512a256 256 0 0 0 256-256 256 256 0 0 0-4.838-49.424L364.014 63.428z" transform="scale(.26458)"/><path style="fill:#fff;fill-opacity:1;stroke-width:.203642" d="M44.395 119.6c3.409-12.147 12.82-46.222 12.82-46.42 0-.213-1.52-.265-7.763-.265-7.294 0-7.756-.02-7.665-.356.053-.196 3.566-12.842 7.806-28.103l7.71-27.746h19.505c10.728 0 19.506.033 19.506.072 0 .042-5.602 10.683-12.449 23.65C77.018 53.4 71.372 64.18 71.318 64.388c-.095.364.307.38 11.23.43l11.33.053-22.558 28.04-22.557 28.038-2.377.013-2.377.012.386-1.375z"/><path style="fill:#000;fill-opacity:.627451;stroke:none;stroke-width:.264583px;stroke-linecap:butt;stroke-linejoin:miter;stroke-opacity:1;opacity:.25" d="m41.812 72.7.929-.171 15.468-1.266 10.733 11.15-8.007 9.41z"/><path style="fill:#fff;fill-opacity:1;stroke-width:.203642" d="M44.395 119.6c3.409-12.147 12.82-46.222 12.82-46.42 0-.213-1.52-.265-7.763-.265-7.294 0-7.756-.02-7.665-.356.053-.196 3.566-12.842 7.806-28.103l7.71-27.746h19.505c10.728 0 19.506.033 19.506.072 0 .042-5.602 10.683-12.449 23.65C77.018 53.4 71.372 64.18 71.318 64.388c-.095.364.307.38 11.23.43l11.33.053-22.558 28.04-22.557 28.038-2.377.013-2.377.012.386-1.375z"/></svg>
